.local/share/icons/Gruvbox-Plus-Dark/panel/16/mic-ready.svg

<svg width="16" height="16" version="1.1" xmlns="http://www.w3.org/2000/svg">
  <defs>
    <style id="current-color-scheme" type="text/css">.ColorScheme-Text { color:#ebdbb2; } .ColorScheme-Highlight { color:#458588; } .ColorScheme-NeutralText { color:#fe8019; } .ColorScheme-PositiveText { color:#689d6a; } .ColorScheme-NegativeText { color:#fb4934; }</style>
  </defs>
  <path class="ColorScheme-Text" d="m8 1c-1.662 0-3 1.338-3 3v4.002c0 1.662 1.338 2.998 3 2.998s3-1.336 3-2.998v-4.002c0-1.662-1.338-3-3-3zm-6 6v0.998c0 2.966 2 6.002 5 6.002v2h2v-2c3 0 5-3.036 5-6.002v-0.998h-2v0.998c0 2.234-1.767 4.002-4 4.002s-4-1.768-4-4.002v-0.998z" fill="currentColor"/>
</svg>

<svg xmlns="http://www.w3.org/2000/svg" width="16" height="16" version="1.1">
 <defs>
  <style id="current-color-scheme" type="text/css">
   .ColorScheme-Text { color:#ebdbb2; } .ColorScheme-Highlight { color:#458588; }
  </style>
 </defs>
 <path style="opacity:0.3;fill:currentColor" class="ColorScheme-Text" d="M 8,0 C 6.3379,0 5,1.3381 5,3 V 8.002 C 5,9.664 6.3379,11 8,11 9.662,11 11,9.664 11,8.002 V 3 C 11,1.3381 9.662,0 8,0 Z M 2,7 V 7.998 C 2,10.965 4,14 7,14 V 16 H 9 V 14 C 12,14 14,10.964 14,7.998 V 7 H 12 V 7.998 C 12,10.232 10.233,12 8,12 5.7666,12 4,10.232 4,7.998 V 7 Z"/>
</svg>
